X: 22517
T: Lady Ellen
R: reel
M: 4/4
K: Aminor
|:EAAG A2 ed|edBA G2 ed|G2dG eGdG|edBA GEED|
EAAG A2 ed|edBA G2 ed|e3d g3e|edBG A4:|
|:eaag a2 ed|eaag a2 bc'|bggf g2 bc'|bggf g2 ed|
eaag a2 ed|eaag a2 bc'|bggf gedB|edBG A4:|

